;FLAVOR:Marlin
;TIME:7006
;Filament used: 2.97956m
;Layer height: 0.12
;MINX:49.75
;MINY:68.2
;MINZ:0.12
;MAXX:170.253
;MAXY:151.795
;MAXZ:5.04
;Generated with Cura_SteamEngine main
M140 S60
M105
M190 S60
M104 S210
M105
M109 S210
M82 ;absolute extrusion mode
; Ender 3 Custom Start G-code
G92 E0 ; Reset Extruder
G28 ; Home all axes
G1 Z2.0 F3000 ; Move Z Axis up little to prevent scratching of Heat Bed
G1 X0.1 Y20 Z0.3 F5000.0 ; Move to start position
G1 X0.1 Y200.0 Z0.3 F1500.0 E15 ; Draw the first line
G1 X0.4 Y200.0 Z0.3 F5000.0 ; Move to side a little
G1 X0.4 Y20 Z0.3 F1500.0 E30 ; Draw the second line
G92 E0 ; Reset Extruder
G1 Z2.0 F3000 ; Move Z Axis up little to prevent scratching of Heat Bed
G1 X5 Y20 Z0.3 F5000.0 ; Move over to prevent blob squish
G92 E0
G92 E0
G1 F2700 E-5
;LAYER_COUNT:42
;LAYER:0
M107
G0 F6000 X56.683 Y93.125 Z0.12
G0 X49.86 Y103.331
;TYPE:SKIRT
G1 F2700 E0
G1 F1200 X49.929 Y102.825 E0.01019
G1 X50.095 Y101.902 E0.02891
G1 X50.382 Y100.864 E0.0504
G1 X50.544 Y100.373 E0.06072
G1 X50.875 Y99.496 E0.07942
G1 X51.281 Y98.65 E0.09815
G1 X51.708 Y97.918 E0.11506
G1 X51.942 Y97.55 E0.12376
G1 X52.478 Y96.78 E0.14249
G1 X52.794 Y96.385 E0.15258
G1 X53.048 Y96.082 E0.16047
G1 X53.681 Y95.39 E0.17919
G1 X54.449 Y94.688 E0.19995
G1 X54.833 Y94.369 E0.20991
G1 X55.579 Y93.801 E0.22862
G1 X56.683 Y93.125 E0.25446
G1 X57.114 Y92.895 E0.26421
G1 X57.96 Y92.489 E0.28293
G1 X59.103 Y92.073 E0.30721
G1 X59.565 Y91.933 E0.31684
G1 X60.473 Y91.699 E0.33555
G1 X61.24 Y91.565 E0.35109
G1 X61.875 Y91.477 E0.36388
G1 X64.49 Y91.075 E0.41668
G1 X66.969 Y90.623 E0.46697
G1 X69.389 Y90.11 E0.51634
G1 X71.855 Y89.516 E0.56696
G1 X74.288 Y88.854 E0.61727
G1 X76.692 Y88.128 E0.66739
G1 X79.109 Y87.321 E0.71824
G1 X81.448 Y86.467 E0.76793
G1 X83.794 Y85.535 E0.81831
G1 X86.107 Y84.537 E0.86858
G1 X88.391 Y83.477 E0.91883
G1 X90.632 Y82.357 E0.96882
G1 X92.841 Y81.174 E1.01883
G1 X95.038 Y79.916 E1.06935
G1 X97.196 Y78.599 E1.1198
G1 X99.318 Y77.22 E1.17031
G1 X101.362 Y75.806 E1.21991
G1 X103.405 Y74.308 E1.27046
G1 X105.412 Y72.746 E1.32121
G1 X107.385 Y71.127 E1.37215
G1 X108.135 Y70.563 E1.39087
G1 X109.191 Y69.922 E1.41553
G1 X109.604 Y69.702 E1.42486
G1 X110.45 Y69.296 E1.44359
G1 X111.208 Y69.005 E1.45979
G1 X111.625 Y68.862 E1.46859
G1 X112.524 Y68.596 E1.4873
G1 X113.782 Y68.358 E1.51285
G1 X114.13 Y68.313 E1.51985
G1 X115.333 Y68.224 E1.54393
G1 X116.544 Y68.203 E1.5681
G1 X158.541 Y68.2 E2.40619
G1 X159.4 Y68.211 E2.42334
G1 X160.336 Y68.264 E2.44204
G1 X161.265 Y68.397 E2.46077
G1 X162.178 Y68.609 E2.47948
G1 X163.071 Y68.897 E2.4982
G1 X163.935 Y69.261 E2.51691
G1 X164.766 Y69.697 E2.53564
G1 X165.556 Y70.202 E2.55435
G1 X166.3 Y70.772 E2.57305
G1 X166.993 Y71.404 E2.59177
G1 X167.63 Y72.093 E2.6105
G1 X168.206 Y72.833 E2.62921
G1 X168.717 Y73.62 E2.64794
G1 X169.158 Y74.447 E2.66664
G1 X169.528 Y75.309 E2.68536
G1 X169.823 Y76.199 E2.70407
G1 X170.041 Y77.112 E2.7228
G1 X170.18 Y78.039 E2.74151
G1 X170.238 Y78.886 E2.75845
G1 X170.253 Y79.55 E2.77171
G1 X170.246 Y140.103 E3.98011
G1 X170.237 Y140.818 E3.99438
G1 X170.185 Y141.755 E4.0131
G1 X170.054 Y142.684 E4.03183
G1 X169.844 Y143.598 E4.05054
G1 X169.557 Y144.49 E4.06924
G1 X169.195 Y145.356 E4.08797
G1 X168.76 Y146.187 E4.10669
G1 X168.257 Y146.978 E4.1254
G1 X167.687 Y147.723 E4.14412
G1 X167.057 Y148.417 E4.16282
G1 X166.369 Y149.055 E4.18155
G1 X165.63 Y149.632 E4.20026
G1 X164.844 Y150.144 E4.21898
G1 X164.017 Y150.587 E4.2377
G1 X163.156 Y150.959 E4.25642
G1 X162.266 Y151.255 E4.27513
G1 X161.355 Y151.474 E4.29383
G1 X160.427 Y151.616 E4.31257
G1 X159.489 Y151.677 E4.33132
G1 X158.253 Y151.703 E4.35599
G1 X116.358 Y151.795 E5.19206
G1 X115.569 Y151.787 E5.2078
G1 X114.269 Y151.696 E5.23381
G1 X113.708 Y151.623 E5.2451
G1 X112.784 Y151.462 E5.26382
G1 X111.547 Y151.116 E5.28945
G1 X110.661 Y150.811 E5.30815
G1 X109.095 Y150.248 E5.34136
G1 X106.709 Y149.464 E5.39148
G1 X104.295 Y148.745 E5.44174
G1 X101.828 Y148.087 E5.4927
G1 X99.434 Y147.52 E5.54179
G1 X96.896 Y146.995 E5.59351
G1 X94.478 Y146.565 E5.64252
G1 X91.973 Y146.191 E5.69307
G1 X89.448 Y145.888 E5.74382
G1 X86.975 Y145.663 E5.79337
G1 X84.447 Y145.503 E5.84392
G1 X81.915 Y145.416 E5.89448
G1 X80.1 Y145.397 E5.93071
G1 X63.683 Y145.396 E6.25832
G1 X63.016 Y145.387 E6.27164
G1 X61.678 Y145.287 E6.29841
G1 X61.172 Y145.218 E6.3086
G1 X60.249 Y145.052 E6.32732
G1 X59.27 Y144.784 E6.34757
G1 X58.921 Y144.671 E6.35489
G1 X58.041 Y144.344 E6.37363
G1 X57.279 Y143.989 E6.3904
G1 X56.997 Y143.844 E6.39673
G1 X56.401 Y143.516 E6.41031
G1 X55.606 Y143.018 E6.42903
G1 X54.811 Y142.417 E6.44892
G1 X54.452 Y142.119 E6.45823
G1 X53.757 Y141.49 E6.47694
G1 X52.929 Y140.577 E6.50153
G1 X52.627 Y140.204 E6.51111
G1 X52.068 Y139.45 E6.52984
G1 X51.481 Y138.48 E6.55247
G1 X51.251 Y138.051 E6.56218
G1 X50.844 Y137.206 E6.5809
G1 X50.415 Y136.03 E6.60588
G1 X50.275 Y135.566 E6.61555
G1 X50.043 Y134.658 E6.63425
G1 X49.901 Y133.83 E6.65102
G1 X49.864 Y133.55 E6.65665
G1 X49.771 Y132.317 E6.68133
G1 X49.75 Y131.105 E6.70552
G1 X49.751 Y105.336 E7.21977
G1 X49.76 Y104.669 E7.23308
G1 X49.86 Y103.331 E7.25986
G0 F6000 X50.151 Y105.341
G1 F1200 X50.16 Y104.674 E7.27317
G1 X50.256 Y103.385 E7.29896
G1 X50.325 Y102.879 E7.30915
G1 X50.489 Y101.973 E7.32753
G1 X50.762 Y100.99 E7.34789
G1 X50.924 Y100.499 E7.3582
G1 X51.25 Y99.638 E7.37658
G1 X51.65 Y98.808 E7.39496
G1 X52.045 Y98.132 E7.41059
G1 X52.279 Y97.764 E7.41929
G1 X52.806 Y97.01 E7.43765
G1 X53.355 Y96.339 E7.45495
G1 X53.976 Y95.66 E7.47331
G1 X54.705 Y94.995 E7.493
G1 X55.089 Y94.676 E7.50297
G1 X55.822 Y94.119 E7.52134
G1 X56.872 Y93.478 E7.54589
G1 X57.303 Y93.248 E7.55564
G1 X58.133 Y92.85 E7.57401
G1 X59.219 Y92.456 E7.59706
G1 X59.681 Y92.316 E7.6067
G1 X60.573 Y92.087 E7.62507
G1 X61.295 Y91.961 E7.6397
G1 X61.993 Y91.864 E7.65376
G1 X64.517 Y91.477 E7.70472
G1 X67.052 Y91.014 E7.75615
G1 X69.494 Y90.497 E7.80596
G1 X71.949 Y89.905 E7.85636
G1 X74.404 Y89.237 E7.90713
G1 X76.829 Y88.504 E7.95769
G1 X79.205 Y87.712 E8.00767
G1 X81.616 Y86.831 E8.05889
G1 X83.934 Y85.91 E8.10867
G1 X86.272 Y84.902 E8.15948
G1 X88.573 Y83.833 E8.21011
G1 X90.821 Y82.71 E8.26026
G1 X93.023 Y81.531 E8.3101
G1 X95.266 Y80.246 E8.36169
G1 X97.401 Y78.943 E8.4116
G1 X99.517 Y77.568 E8.46196
G1 X101.621 Y76.113 E8.51301
G1 X103.642 Y74.631 E8.56302
G1 X105.648 Y73.07 E8.61375
G1 X107.639 Y71.436 E8.66515
G1 X108.375 Y70.883 E8.68352
G1 X109.379 Y70.275 E8.70694
G1 X109.792 Y70.055 E8.71628
G1 X110.623 Y69.657 E8.73467
G1 X111.338 Y69.383 E8.74995
G1 X111.755 Y69.24 E8.75875
G1 X112.638 Y68.98 E8.77712
G1 X113.834 Y68.755 E8.8014
G1 X114.182 Y68.71 E8.80841
G1 X115.34 Y68.624 E8.83158
G1 X116.544 Y68.603 E8.85561
G1 X158.541 Y68.6 E9.6937
G1 X159.394 Y68.611 E9.71073
G1 X160.313 Y68.664 E9.7291
G1 X161.224 Y68.797 E9.74747
G1 X162.12 Y69.008 E9.76584
G1 X162.995 Y69.296 E9.78422
G1 X163.841 Y69.659 E9.8026
G1 X164.652 Y70.094 E9.82096
G1 X165.423 Y70.598 E9.83934
G1 X166.147 Y71.167 E9.85772
G1 X166.819 Y71.796 E9.87609
G1 X167.434 Y72.481 E9.89446
G1 X167.987 Y73.217 E9.91283
G1 X168.474 Y73.999 E9.93121
G1 X168.891 Y74.819 E9.94957
G1 X169.236 Y75.673 E9.96795
G1 X169.505 Y76.554 E9.98634
G1 X169.697 Y77.454 E10.0047
G1 X169.809 Y78.368 E10.02308
G1 X169.838 Y78.897 E10.03365
G1 X169.853 Y79.55 E10.04668
G1 X169.846 Y140.098 E11.25499
G1 X169.837 Y140.813 E11.26926
G1 X169.786 Y141.733 E11.28764
G1 X169.654 Y142.644 E11.30601
G1 X169.445 Y143.54 E11.32437
G1 X169.158 Y144.415 E11.34275
G1 X168.797 Y145.262 E11.36112
G1 X168.363 Y146.074 E11.3795
G1 X167.86 Y146.845 E11.39787
G1 X167.293 Y147.57 E11.41624
G1 X166.665 Y148.243 E11.43461
G1 X165.98 Y148.859 E11.45299
G1 X165.245 Y149.413 E11.47136
G1 X164.465 Y149.902 E11.48973
G1 X163.645 Y150.321 E11.50811
G1 X162.792 Y150.667 E11.52648
G1 X161.912 Y150.937 E11.54484
G1 X161.012 Y151.131 E11.56322
G1 X160.098 Y151.245 E11.5816
G1 X159.48 Y151.277 E11.59395
G1 X158.252 Y151.303 E11.61846
G1 X116.357 Y151.395 E12.45452
G1 X115.573 Y151.387 E12.47017
G1 X114.32 Y151.299 E12.49523
G1 X113.759 Y151.226 E12.50652
G1 X112.852 Y151.068 E12.5249
G1 X111.677 Y150.738 E12.54925
G1 X110.791 Y150.433 E12.56795
G1 X109.219 Y149.868 E12.60129
G1 X106.811 Y149.076 E12.65187
G1 X104.407 Y148.361 E12.70193
G1 X101.951 Y147.706 E12.75265
G1 X99.501 Y147.125 E12.8029
G1 X96.976 Y146.602 E12.85436
G1 X94.536 Y146.169 E12.90381
G1 X92.047 Y145.798 E12.95403
G1 X89.492 Y145.491 E13.00539
G1 X87.004 Y145.264 E13.05524
G1 X84.485 Y145.105 E13.10561
G1 X81.892 Y145.015 E13.15739
G1 X80.104 Y144.997 E13.19307
G1 X63.688 Y144.996 E13.52067
G1 X63.021 Y144.987 E13.53398
G1 X61.732 Y144.891 E13.55978
G1 X61.226 Y144.822 E13.56997
G1 X60.32 Y144.658 E13.58834
G1 X59.393 Y144.404 E13.60752
G1 X59.044 Y144.291 E13.61485
G1 X58.181 Y143.969 E13.63323
G1 X57.462 Y143.633 E13.64907
G1 X57.18 Y143.488 E13.65539
G1 X56.599 Y143.168 E13.66863
G1 X55.819 Y142.679 E13.687
G1 X55.067 Y142.109 E13.70583
G1 X54.708 Y141.811 E13.71514
G1 X54.026 Y141.193 E13.73351
G1 X53.24 Y140.325 E13.75688
G1 X52.938 Y139.952 E13.76646
G1 X52.39 Y139.212 E13.78483
G1 X51.834 Y138.291 E13.8063
G1 X51.604 Y137.862 E13.81601
G1 X51.205 Y137.032 E13.83439
G1 X50.798 Y135.915 E13.85812
G1 X50.658 Y135.451 E13.86779
G1 X50.43 Y134.559 E13.88616
G1 X50.297 Y133.778 E13.90197
G1 X50.26 Y133.498 E13.90761
G1 X50.171 Y132.31 E13.93138
G1 X50.15 Y131.105 E13.95543
G1 X50.151 Y105.341 E14.46958
G0 F6000 X50.551 Y105.346
G1 F1200 X50.56 Y104.679 E14.48289
G1 X50.653 Y103.439 E14.50771
G1 X50.722 Y102.933 E14.5179
G1 X50.883 Y102.044 E14.53593
G1 X51.142 Y101.115 E14.55518
G1 X51.304 Y100.624 E14.56549
G1 X51.624 Y99.78 E14.58351
G1 X52.018 Y98.967 E14.60154
G1 X52.383 Y98.347 E14.61589
G1 X52.617 Y97.979 E14.6246
G1 X53.407 Y96.899 E14.6513
G1 X53.661 Y96.596 E14.65919
G1 X54.271 Y95.931 E14.6772
G1 X54.96 Y95.303 E14.6958
G1 X55.344 Y94.984 E14.70577
G1 X56.064 Y94.438 E14.7238
G1 X57.06 Y93.831 E14.74707
G1 X57.491 Y93.601 E14.75682
G1 X58.306 Y93.212 E14.77485
G1 X59.335 Y92.838 E14.79669
G1 X59.797 Y92.698 E14.80633
G1 X60.672 Y92.475 E14.82435
G1 X61.35 Y92.357 E14.83808
G1 X62.043 Y92.261 E14.85204
G1 X64.612 Y91.866 E14.90391
G1 X67.094 Y91.413 E14.95426
G1 X69.598 Y90.883 E15.00534
G1 X72.05 Y90.292 E15.05567
G1 X74.519 Y89.62 E15.10674
G1 X76.924 Y88.894 E15.15687
G1 X79.363 Y88.08 E15.20818
G1 X81.721 Y87.219 E15.25828
G1 X84.103 Y86.272 E15.30943
G1 X86.433 Y85.268 E15.36006
G1 X88.727 Y84.202 E15.41054
G1 X91.009 Y83.062 E15.46145
G1 X93.245 Y81.865 E15.51206
G1 X95.452 Y80.6 E15.56283
G1 X97.622 Y79.276 E15.61356
G1 X99.757 Y77.889 E15.66436
G1 X101.822 Y76.461 E15.71447
G1 X103.895 Y74.94 E15.76578
G1 X105.908 Y73.374 E15.81667
G1 X107.893 Y71.745 E15.86792
G1 X108.615 Y71.204 E15.88592
G1 X109.568 Y70.628 E15.90814
G1 X109.981 Y70.408 E15.91748
G1 X110.796 Y70.019 E15.9355
G1 X111.467 Y69.762 E15.94984
G1 X111.884 Y69.619 E15.95864
G1 X112.751 Y69.364 E15.97667
G1 X113.885 Y69.151 E15.9997
G1 X114.233 Y69.106 E16.0067
G1 X115.348 Y69.024 E16.02901
G1 X116.544 Y69.003 E16.05289
G1 X158.541 Y69 E16.89098
G1 X159.388 Y69.011 E16.90789
G1 X160.29 Y69.064 E16.92592
G1 X161.183 Y69.196 E16.94393
G1 X162.062 Y69.407 E16.96197
G1 X162.918 Y69.695 E16.97999
G1 X163.745 Y70.057 E16.99801
G1 X164.537 Y70.491 E17.01603
G1 X165.287 Y70.994 E17.03405
G1 X165.99 Y71.561 E17.05208
G1 X166.64 Y72.187 E17.07009
G1 X167.233 Y72.869 E17.08812
G1 X167.762 Y73.601 E17.10614
G1 X168.225 Y74.376 E17.12416
G1 X168.617 Y75.19 E17.14219
G1 X168.936 Y76.035 E17.16021
G1 X169.179 Y76.904 E17.17822
G1 X169.344 Y77.792 E17.19625
G1 X169.439 Y78.909 E17.21862
G1 X169.453 Y79.55 E17.23141
G1 X169.446 Y140.093 E18.43961
G1 X169.437 Y140.808 E18.45388
G1 X169.386 Y141.71 E18.47191
G1 X169.255 Y142.604 E18.48994
G1 X169.046 Y143.482 E18.50795
G1 X168.759 Y144.339 E18.52599
G1 X168.398 Y145.166 E18.544
G1 X167.966 Y145.959 E18.56202
G1 X167.464 Y146.71 E18.58005
G1 X166.899 Y147.414 E18.59806
G1 X166.273 Y148.066 E18.6161
G1 X165.592 Y148.659 E18.63412
G1 X164.862 Y149.19 E18.65213
G1 X164.087 Y149.654 E18.67016
G1 X163.274 Y150.048 E18.68819
G1 X162.43 Y150.368 E18.7062
G1 X161.56 Y150.612 E18.72423
G1 X160.673 Y150.779 E18.74224
G1 X159.47 Y150.877 E18.76633
G1 X158.251 Y150.903 E18.79066
G1 X116.356 Y150.995 E19.62672
G1 X115.577 Y150.987 E19.64227
G1 X114.372 Y150.903 E19.66638
G1 X113.811 Y150.83 E19.67767
G1 X112.921 Y150.674 E19.6957
G1 X111.807 Y150.36 E19.7188
G1 X110.785 Y150.007 E19.74037
G1 X109.331 Y149.483 E19.77122
G1 X106.944 Y148.699 E19.82135
G1 X104.519 Y147.977 E19.87185
G1 X102.033 Y147.314 E19.92319
G1 X99.577 Y146.732 E19.97356
G1 X97.089 Y146.217 E20.02427
G1 X94.558 Y145.767 E20.07557
G1 X92.083 Y145.398 E20.1255
G1 X89.578 Y145.098 E20.17585
G1 X87.029 Y144.865 E20.22693
G1 X84.488 Y144.705 E20.27774
G1 X81.911 Y144.615 E20.3292
G1 X80.108 Y144.597 E20.36518
G1 X63.693 Y144.596 E20.69276
G1 X63.026 Y144.587 E20.70607
G1 X61.786 Y144.494 E20.73089
G1 X61.28 Y144.425 E20.74108
G1 X60.391 Y144.264 E20.75911
G1 X59.516 Y144.023 E20.77722
G1 X59.167 Y143.91 E20.78454
G1 X58.321 Y143.594 E20.80256
G1 X57.645 Y143.277 E20.81746
G1 X57.363 Y143.132 E20.82379
G1 X56.797 Y142.821 E20.83668
G1 X56.032 Y142.34 E20.85471
G1 X55.322 Y141.801 E20.8725
G1 X54.963 Y141.503 E20.88181
G1 X54.295 Y140.896 E20.89982
G1 X53.551 Y140.073 E20.92196
G1 X53.249 Y139.7 E20.93154
G1 X52.712 Y138.974 E20.94956
G1 X52.186 Y138.102 E20.96988
G1 X51.956 Y137.673 E20.9796
G1 X51.565 Y136.859 E20.99762
G1 X51.181 Y135.799 E21.02012
G1 X51.041 Y135.335 E21.02979
G1 X50.818 Y134.46 E21.04781
G1 X50.694 Y133.725 E21.06268
G1 X50.657 Y133.445 E21.06832
G1 X50.571 Y132.302 E21.09119
G1 X50.55 Y131.105 E21.11509
G1 X50.551 Y105.346 E21.62913
G1 F2700 E16.62913
;MESH:V2 UniTak3D Direct Drive Filament Runout Mount.stl
G0 F6000 X63.131 Y109.298
G0 X63.765 Y110.626
G0 X63.981 Y110.926
G0 X64.358 Y111.275
G0 X64.746 Y111.5
G0 X65.968 Y111.834
;TYPE:WALL-INNER
G1 F2700 E21.62913
G1 F1200 X65.367 Y111.841 E21.64113
G1 X64.924 Y111.739 E21.6502
G1 X64.651 Y111.631 E21.65606
G1 X64.256 Y111.403 E21.66516
G1 X63.847 Y111.02 E21.67634
G1 X63.618 Y110.698 E21.68423
G1 X63.402 Y110.215 E21.69479
G1 X63.312 Y109.815 E21.70297
G1 X63.312 Y109.297 E21.71331
G1 X63.35 Y109.023 E21.71883
G1 X63.472 Y108.588 E21.72784
G1 X63.762 Y108.084 E21.73945
G1 X64.069 Y107.755 E21.74843
G1 X64.302 Y107.57 E21.75436
G1 X64.793 Y107.291 E21.76563
G1 X65.364 Y107.16 E21.77732
G1 X65.933 Y107.16 E21.78868
G1 X66.408 Y107.27 E21.79841
G1 X66.916 Y107.514 E21.80966
G1 X67.266 Y107.792 E21.81858
G1 X67.47 Y108.011 E21.82455
G1 X67.817 Y108.518 E21.83681
G1 X67.983 Y109.174 E21.85031
G1 X67.978 Y109.835 E21.8635
G1 X67.854 Y110.317 E21.87344
G1 X67.595 Y110.823 E21.88478
G1 X67.299 Y111.179 E21.89402
G1 X66.924 Y111.48 E21.90362
G1 X66.412 Y111.723 E21.91493
G1 X65.968 Y111.834 E21.92406
G0 F6000 X66.278 Y111.346
G1 F1200 X65.885 Y111.437 E21.93211
G1 X65.41 Y111.441 E21.94159
G1 X64.925 Y111.328 E21.95153
G1 X64.5 Y111.083 E21.96132
G1 X64.121 Y110.728 E21.97168
G1 X63.983 Y110.535 E21.97641
G1 X63.785 Y110.092 E21.9861
G1 X63.712 Y109.773 E21.99263
G1 X63.712 Y109.297 E22.00213
G1 X63.734 Y109.132 E22.00545
G1 X63.844 Y108.743 E22.01352
G1 X64.086 Y108.322 E22.02321
G1 X64.426 Y107.959 E22.03313
G1 X64.935 Y107.669 E22.04482
G1 X65.408 Y107.56 E22.05451
G1 X65.887 Y107.56 E22.06407
G1 X66.273 Y107.65 E22.07198
G1 X66.703 Y107.856 E22.08149
G1 X67.087 Y108.16 E22.09127
G1 X67.449 Y108.689 E22.10406
G1 X67.578 Y109.225 E22.11506
G1 X67.58 Y109.791 E22.12636
G1 X67.484 Y110.155 E22.13387
G1 X67.264 Y110.597 E22.14372
G1 X67.012 Y110.899 E22.15157
G1 X66.706 Y111.138 E22.15932
G1 X66.278 Y111.346 E22.16882
G0 F6000 X65.433 Y111.035
;TYPE:WALL-OUTER
G1 F1200 X65.075 Y110.952 E22.17615
G1 X64.758 Y110.77 E22.18344
G1 X64.365 Y110.409 E22.19409
G1 X64.174 Y109.98 E22.20346
G1 X64.114 Y109.739 E22.20842
G1 X64.112 Y109.297 E22.21724
G1 X64.119 Y109.242 E22.21835
G1 X64.217 Y108.897 E22.2255
G1 X64.424 Y108.547 E22.23362
